svg/misc/floor-o.svg

<svg width="448" height="512" viewBox="0 0 448 512" fill="none" xmlns="http://www.w3.org/2000/svg">
<path fill-rule="evenodd" clip-rule="evenodd" d="M195.417 37.0152L9.625 129.789C6.125 131.54 3.64583 133.436 2.1875 135.478C0.729167 137.521 0 140.292 0 143.793C0 147.294 0.729167 150.065 2.1875 152.108C3.64583 154.15 6.125 156.046 9.625 157.797L195.417 250.571C203 254.266 212.528 255.919 224 255.53C235.472 255.919 245 254.266 252.583 250.571L438.375 157.797C441.875 156.046 444.354 154.15 445.812 152.108C447.271 150.065 448 147.294 448 143.793C448 140.292 447.271 137.521 445.812 135.478C444.354 133.436 441.875 131.54 438.375 129.789L252.583 37.0152C245 33.3198 235.472 31.6666 224 32.0556C212.528 31.6666 203 33.3198 195.417 37.0152ZM224 64.074L225.084 64.0372C232.983 63.7694 236.918 65.0031 238.48 65.7406L394.79 143.793L238.48 221.845C236.918 222.583 232.984 223.817 225.084 223.549L224 223.512L222.916 223.549C215.016 223.817 211.082 222.583 209.52 221.845L53.2102 143.793L209.52 65.7406C211.082 65.0031 215.017 63.7694 222.916 64.0372L224 64.074Z" fill="black"/>
<path fill-rule="evenodd" clip-rule="evenodd" d="M69.2819 324L9.625 353.789C6.125 355.54 3.64583 357.436 2.1875 359.478C0.729167 361.521 0 364.292 0 367.793C0 371.294 0.729167 374.066 2.1875 376.108C3.64583 378.15 6.125 380.046 9.625 381.797L195.417 474.571C203 478.266 212.528 479.92 224 479.531C235.472 479.92 245 478.266 252.583 474.571L438.375 381.797C441.875 380.046 444.354 378.15 445.812 376.108C447.271 374.066 448 371.294 448 367.793C448 364.292 447.271 361.521 445.812 359.478C444.354 357.436 441.875 355.54 438.375 353.789L378.718 324L342.904 341.884L394.79 367.793L238.48 445.845C236.918 446.583 232.984 447.817 225.084 447.549L224 447.512L222.916 447.549C215.016 447.817 211.082 446.583 209.52 445.845L53.2102 367.793L105.096 341.884L69.2819 324ZM23.778 382.494C23.7779 382.494 23.7845 382.49 23.7982 382.483L23.7828 382.491L23.778 382.494Z" fill="black"/>
<path fill-rule="evenodd" clip-rule="evenodd" d="M9.625 242.204L69.6965 212.207L105.511 230.091L53.2102 256.207L209.52 334.26C211.082 334.997 215.016 336.231 222.916 335.963L224 335.926L225.084 335.963C232.984 336.231 236.918 334.997 238.48 334.26L394.79 256.207L342.489 230.091L378.304 212.207L438.375 242.204C441.875 243.954 444.354 245.85 445.812 247.893C447.271 249.935 448 252.706 448 256.207C448 259.708 447.271 262.48 445.812 264.522C444.354 266.564 441.875 268.46 438.375 270.211L252.583 362.985C245 366.68 235.472 368.334 224 367.945C212.528 368.334 203 366.68 195.417 362.985L9.625 270.211C6.125 268.46 3.64583 266.564 2.1875 264.522C0.729167 262.48 0 259.708 0 256.207C0 252.706 0.729167 249.935 2.1875 247.893C3.64583 245.85 6.125 243.954 9.625 242.204ZM23.7787 241.507L23.78 241.508L23.7982 241.518C23.785 241.51 23.7788 241.507 23.7787 241.507Z" fill="black"/>
</svg>

<svg width="448" height="512" viewBox="0 0 448 512" version="1.1" xmlns="http://www.w3.org/2000/svg"><path fill="currentColor" d="M69.282,324l-59.657,29.789c-3.5,1.751 -5.979,3.647 -7.437,5.689c-1.459,2.043 -2.188,4.814 -2.188,8.315c0,3.501 0.729,6.273 2.188,8.315c1.458,2.042 3.937,3.938 7.437,5.689l185.792,92.774c7.583,3.695 17.111,5.349 28.583,4.96c11.472,0.389 21,-1.265 28.583,-4.96l185.792,-92.774c3.5,-1.751 5.979,-3.647 7.437,-5.689c1.459,-2.042 2.188,-4.814 2.188,-8.315c0,-3.501 -0.729,-6.272 -2.188,-8.315c-1.458,-2.042 -3.937,-3.938 -7.437,-5.689l-59.657,-29.789l-35.814,17.884l51.886,25.909l-156.31,78.052c-1.562,0.738 -5.496,1.972 -13.396,1.704l-1.084,-0.037l-1.084,0.037c-7.9,0.268 -11.834,-0.966 -13.396,-1.704l-156.31,-78.052l51.886,-25.909l-35.814,-17.884Zm-45.504,58.494c0,0 0.007,-0.004 0.02,-0.011l-0.015,0.008l-0.005,0.003Zm-14.153,-140.29l60.072,-29.997l35.814,17.884l-52.301,26.116l156.31,78.053c1.562,0.737 5.496,1.971 13.396,1.703l1.084,-0.037l1.084,0.037c7.9,0.268 11.834,-0.966 13.396,-1.703l156.31,-78.053l-52.301,-26.116l35.815,-17.884l60.071,29.997c3.5,1.75 5.979,3.646 7.437,5.689c1.459,2.042 2.188,4.813 2.188,8.314c0,3.501 -0.729,6.273 -2.188,8.315c-1.458,2.042 -3.937,3.938 -7.437,5.689l-185.792,92.774c-7.583,3.695 -17.111,5.349 -28.583,4.96c-11.472,0.389 -21,-1.265 -28.583,-4.96l-185.792,-92.774c-3.5,-1.751 -5.979,-3.647 -7.438,-5.689c-1.458,-2.042 -2.187,-4.814 -2.187,-8.315c0,-3.501 0.729,-6.272 2.187,-8.314c1.459,-2.043 3.938,-3.939 7.438,-5.689Zm185.792,-205.189l-185.792,92.774c-3.5,1.751 -5.979,3.647 -7.438,5.689c-1.458,2.043 -2.187,4.814 -2.187,8.315c0,3.501 0.729,6.272 2.187,8.315c1.459,2.042 3.938,3.938 7.438,5.689l185.792,92.774c7.583,3.695 17.111,5.348 28.583,4.959c11.472,0.389 21,-1.264 28.583,-4.959l185.792,-92.774c3.5,-1.751 5.979,-3.647 7.437,-5.689c1.459,-2.043 2.188,-4.814 2.188,-8.315c0,-3.501 -0.729,-6.272 -2.188,-8.315c-1.458,-2.042 -3.937,-3.938 -7.437,-5.689l-185.792,-92.774c-7.583,-3.695 -17.111,-5.348 -28.583,-4.959c-11.472,-0.389 -21,1.264 -28.583,4.959Zm-171.638,204.492l0.001,0.001l0.018,0.01c-0.013,-0.008 -0.019,-0.011 -0.019,-0.011Zm200.221,-177.433l1.084,-0.037c7.899,-0.268 11.834,0.966 13.396,1.704l156.31,78.052l-156.31,78.052c-1.562,0.738 -5.496,1.972 -13.396,1.704l-1.084,-0.037l-1.084,0.037c-7.9,0.268 -11.834,-0.966 -13.396,-1.704l-156.31,-78.052l156.31,-78.052c1.562,-0.738 5.497,-1.972 13.396,-1.704l1.084,0.037Z"></path></svg>
